flaticon/coffee-shop/coffee-cup-3.svg

<svg xmlns="http://www.w3.org/2000/svg" width="32" height="32" viewBox="0 0 24 24">
    <path d="M 11.367188 5.261719 C 7.664062 5.261719 4.632812 8.292969 4.632812 12 C 4.632812 15.707031 7.664062 18.738281 11.367188 18.738281 C 15.074219 18.738281 18.105469 15.707031 18.105469 12 C 18.105469 8.292969 15.074219 5.261719 11.367188 5.261719 Z M 11.367188 17.894531 C 8.125 17.894531 5.472656 15.242188 5.472656 12 C 5.472656 8.757812 8.125 6.105469 11.367188 6.105469 C 14.609375 6.105469 17.261719 8.757812 17.261719 12 C 17.261719 15.242188 14.609375 17.894531 11.367188 17.894531 Z M 11.367188 17.894531"/>
    <path d="M 11.367188 16.210938 C 11.117188 16.210938 10.949219 16.378906 10.949219 16.632812 C 10.949219 16.882812 11.117188 17.050781 11.367188 17.050781 C 14.148438 17.050781 16.421875 14.777344 16.421875 12 C 16.421875 11.746094 16.253906 11.578125 16 11.578125 C 15.746094 11.578125 15.578125 11.746094 15.578125 12 C 15.578125 14.316406 13.683594 16.210938 11.367188 16.210938 Z M 11.367188 16.210938"/>
    <path d="M 24 12.421875 C 24 11.613281 23.421875 10.933594 22.660156 10.773438 C 22.035156 5.042969 17.148438 0.632812 11.367188 0.632812 C 5.09375 0.632812 0 5.726562 0 12 C 0 18.273438 5.09375 23.367188 11.367188 23.367188 C 16.804688 23.367188 21.554688 19.421875 22.546875 14.089844 C 23.367188 13.972656 24 13.269531 24 12.421875 Z M 11.367188 22.527344 C 5.558594 22.527344 0.84375 17.808594 0.84375 12 C 0.84375 6.191406 5.558594 1.472656 11.367188 1.472656 C 16.671875 1.472656 21.179688 5.515625 21.808594 10.738281 L 19.695312 10.738281 C 19.078125 6.699219 15.570312 3.578125 11.367188 3.578125 C 6.738281 3.578125 2.949219 7.367188 2.949219 12 C 2.949219 16.632812 6.738281 20.421875 11.367188 20.421875 C 15.273438 20.421875 18.582031 17.726562 19.519531 14.105469 L 21.683594 14.105469 C 20.714844 18.949219 16.335938 22.527344 11.367188 22.527344 Z M 18.949219 12 C 18.949219 16.167969 15.535156 19.578125 11.367188 19.578125 C 7.199219 19.578125 3.789062 16.167969 3.789062 12 C 3.789062 7.832031 7.199219 4.421875 11.367188 4.421875 C 15.535156 4.421875 18.949219 7.832031 18.949219 12 Z M 22.316406 13.261719 L 19.707031 13.261719 C 19.714844 13.148438 19.726562 13.035156 19.738281 12.917969 C 19.765625 12.671875 19.78125 12.417969 19.789062 12.164062 C 19.789062 12.109375 19.789062 12.054688 19.789062 12 C 19.789062 11.875 19.789062 11.707031 19.789062 11.578125 L 22.316406 11.578125 C 22.777344 11.578125 23.15625 11.957031 23.15625 12.421875 C 23.15625 12.882812 22.777344 13.261719 22.316406 13.261719 Z M 22.316406 13.261719"/>
    <path d="M 10.949219 9.472656 C 10.949219 8.546875 10.191406 7.789062 9.261719 7.789062 C 8.335938 7.789062 7.578125 8.546875 7.578125 9.472656 C 7.578125 10.398438 8.335938 11.15625 9.261719 11.15625 L 10.527344 11.15625 C 10.777344 11.15625 10.949219 10.988281 10.949219 10.738281 Z M 10.105469 10.316406 L 9.261719 10.316406 C 8.800781 10.316406 8.421875 9.9375 8.421875 9.472656 C 8.421875 9.011719 8.800781 8.632812 9.261719 8.632812 C 9.726562 8.632812 10.105469 9.011719 10.105469 9.472656 Z M 10.105469 10.316406"/>
</svg>

<svg xmlns="http://www.w3.org/2000/svg" width="32" height="32" viewBox="0 0 24 24">
    <path d="M11.367 5.262c-3.703 0-6.734 3.031-6.734 6.738 0 3.707 3.031 6.738 6.734 6.738 3.707 0 6.738-3.031 6.738-6.738 0-3.707-3.03-6.738-6.738-6.738zm0 12.633c-3.242 0-5.894-2.653-5.894-5.895 0-3.242 2.652-5.895 5.894-5.895S17.262 8.758 17.262 12c0 3.242-2.653 5.895-5.895 5.895zm0 0"/>
    <path d="M11.367 16.21c-.25 0-.418.169-.418.423 0 .25.168.418.418.418 2.781 0 5.055-2.274 5.055-5.051 0-.254-.168-.422-.422-.422s-.422.168-.422.422a4.223 4.223 0 0 1-4.21 4.21zm0 0"/>
    <path d="M24 12.422c0-.809-.578-1.488-1.34-1.649-.625-5.73-5.512-10.14-11.293-10.14C5.094.633 0 5.727 0 12c0 6.273 5.094 11.367 11.367 11.367 5.438 0 10.188-3.945 11.18-9.277A1.691 1.691 0 0 0 24 12.422zM11.367 22.527C5.56 22.527.844 17.81.844 12c0-5.809 4.715-10.527 10.523-10.527 5.305 0 9.813 4.043 10.442 9.265h-2.114c-.617-4.039-4.125-7.16-8.328-7.16-4.629 0-8.418 3.79-8.418 8.422 0 4.633 3.79 8.422 8.418 8.422 3.906 0 7.215-2.695 8.153-6.317h2.164c-.97 4.844-5.348 8.422-10.317 8.422zM18.95 12c0 4.168-3.414 7.578-7.582 7.578-4.168 0-7.578-3.41-7.578-7.578s3.41-7.578 7.578-7.578S18.95 7.832 18.95 12zm3.367 1.262h-2.609c.008-.114.02-.227.031-.344.028-.246.043-.5.051-.754V12v-.422h2.527c.461 0 .84.379.84.844 0 .46-.379.84-.84.84zm0 0"/>
    <path d="M10.95 9.473a1.69 1.69 0 0 0-1.688-1.684c-.926 0-1.684.758-1.684 1.684 0 .925.758 1.683 1.684 1.683h1.265c.25 0 .422-.168.422-.418zm-.845.843h-.843a.844.844 0 0 1-.84-.843c0-.461.379-.84.84-.84.465 0 .843.379.843.84zm0 0"/>
</svg>
